BDOT10k_SVG/KARTO10k/0010_612.svg

﻿<?xml version="1.0" encoding="UTF-8"?>
<svg viewBox="-15 -15 30 30" xmlns="http://www.w3.org/2000/svg" xmlns:xlink="http://www.w3.org/1999/xlink" xmlns:gmsvgsym="http://www.intergraph.com/GeoMedia/svgsym">
  <!-- Creator: SVG Document for Symbols-->
  <polyline points="14.9999994039536,0 14.9773408048539,-0.824163167250698 14.9066384076634,-1.67096173360195 14.7838842125412,-2.53707529918569 14.605262619639,-3.41852126416017 14.3672660290961,-4.31064362871041 14.0668196410348,-5.20812499304771 13.7014128555548,-6.10501975740831 13.2692302727282,-6.99482032205081 12.7692772925945,-7.87054888725249 12.4938285035399,-8.30085727015357 12.2014921151563,-8.72488245330432 11.8924205274377,-9.14168023674227 11.5668343403753,-9.55030502050498 11.2250233539576,-9.94981580462984 10.8673465681704,-10.3392823891538 10.4942321829967,-10.7177923741132 10.1061771984166,-11.0844559595433 9.70374521440781,-11.4384139454783 9.28756443094535,-11.7788425319509 8.8583248480018,-12.1049603189921 8.41677466554742,-12.4160335066312 7.96371588355036,-12.7113810948951 7.49999970197679,-12.9903804838087 7.02652112079114,-13.2524708733941 6.54421293995634,-13.4971574636712 6.05404055943404,-13.7240144546567 5.55699457918488,-13.9326878463647 5.05408439916873,-14.1228968388065 4.546331819345,-14.2944342319902 4.03476423967287,-14.4471678259211 3.52040806011155,-14.5810394206016 3.00428148062058,-14.6960632160309 2.48738950116002,-14.7923248122058 1.97071712169074,-14.8699784091201 1.4552237421746,-14.9292434067652 0.941838962574682,-14.9704016051297 0.431456582855456,-14.9937930042002 -0.0750681970170579,-14.999811603961 -0.576922977075141,-14.9889006043946 -1.56360413786795,-14.9182816072008 -2.52304129974335,-14.7862856124458 -3.45050606288921,-14.597739219938 -4.34210502746025,-14.3577890294727 -5.19477039357837,-14.0717568408386 -6.00622376133411,-13.7450084538224 -6.7749241307887,-13.3828390682138 -7.49999970197679,-12.9903804838087 -8.20241667406525,-12.5586761009631 -8.9004146463293,-12.0740467202205 -9.58911381896285,-11.5346815416529 -10.2631573921788,-10.9392677653126 -10.9167599662069,-10.2870955912275 -11.5437783412915,-9.57816081939808 -12.1378087176868,-8.81326164979245 -12.692307095653,-7.99408028234379 -13.20073387545,-7.12324411694771 -13.4356674661145,-6.66954433497612 -13.6567158573309,-6.20436095346085 -13.8631376491284,-5.72829817237788 -14.0542238415353,-5.24201979170085 -14.2293048345782,-4.74624741140107 -14.387754628282,-4.24175683144773 -14.5289966226695,-3.72937545180793 -14.6525090177616,-3.20997827244692 -14.7578296135765,-2.68448289332823 -14.8445590101302,-2.15384551441387 -14.9123656074358,-1.61905433566456 -14.9609876055038,-1.08112395703999 -14.9902370043415,-0.541089778499024 -14.9999994039536,0 -14.9902370043415,0.541089778499024 -14.9609876055038,1.08112395703999 -14.9123656074358,1.61905433566456 -14.8445590101302,2.15384551441387 -14.7578296135765,2.68448289332823 -14.6525090177616,3.20997827244692 -14.5289966226695,3.72937545180793 -14.387754628282,4.24175683144773 -14.2293048345782,4.74624741140107 -14.0542238415353,5.24201979170085 -13.8631376491284,5.72829817237788 -13.6567158573309,6.20436095346085 -13.4356674661145,6.66954433497612 -13.20073387545,7.12324411694771 -12.9526836853066,7.56491669939722 -12.692307095653,7.99408028234379 -12.1378087176868,8.81326164979245 -11.5437783412915,9.57816081939808 -10.9167599662069,10.2870955912275 -10.2631573921788,10.9392677653126 -9.58911381896285,11.5346815416529 -8.9004146463293,12.0740467202205 -8.20241667406525,12.5586761009631 -7.49999970197679,12.9903804838087 -6.7749241307887,13.3828390682138 -6.00622376133411,13.7450084538224 -5.19477039357837,14.0717568408386 -4.34210502746025,14.3577890294727 -3.45050606288921,14.597739219938 -2.52304129974335,14.7862856124458 -1.56360413786795,14.9182816072008 -0.576922977075141,14.9889006043946 0.431456582855456,14.9937930042002 0.941838962574682,14.9704016051297 1.4552237421746,14.9292434067652 1.97071712169074,14.8699784091201 2.48738950116002,14.7923248122058 3.00428148062058,14.6960632160309 3.52040806011155,14.5810394206016 4.03476423967287,14.4471678259211 4.546331819345,14.2944342319902 5.05408439916873,14.1228968388065 5.55699457918488,13.9326878463647 6.05404055943404,13.7240144546567 6.54421293995634,13.4971574636712 7.02652112079114,13.2524708733941 7.49999970197679,12.9903804838087 7.96371588355036,12.7113810948951 8.41677466554742,12.4160335066312 8.8583248480018,12.1049603189921 9.28756443094535,11.7788425319509 9.70374521440781,11.4384139454783 10.1061771984166,11.0844559595433 10.4942321829967,10.7177923741132 10.8673465681704,10.3392823891538 11.2250233539576,9.94981580462984 11.5668343403753,9.55030502050498 11.8924205274377,9.14168023674227 12.2014921151563,8.72488245330432 12.4938285035399,8.30085727015357 12.7692772925945,7.87054888725249 13.0277520823236,7.43489470456383 13.2692302727282,6.99482032205081 13.7014128555548,6.10501975740831 14.0668196410348,5.20812499304771 14.3672660290961,4.31064362871041 14.605262619639,3.41852126416017 14.7838842125412,2.53707529918569 14.9066384076634,1.67096173360195 14.9773408048539,0.824163167250698 14.9999994039536,0" style=" stroke-width: 0.0000010000;stroke: #59d9ff; fill: none; " xmlns="http://www.w3.org/2000/svg" />
  <g id="ComplexString2d_1278" style=" fill-rule: evenodd; stroke-width: 0.0000000000;stroke: #59d9ff; fill: #59d9ff; " xmlns="http://www.w3.org/2000/svg">
    <path d="M 14.9999994039536 0 L 14.9773408048539 -0.824163167250698 L 14.9066384076634 -1.67096173360195 L 14.7838842125412 -2.53707529918569 L 14.605262619639 -3.41852126416017 L 14.3672660290961 -4.31064362871041 L 14.0668196410348 -5.20812499304771 L 13.7014128555548 -6.10501975740831 L 13.2692302727282 -6.99482032205081 L 12.7692772925945 -7.87054888725249 L 12.4938285035399 -8.30085727015357 L 12.2014921151563 -8.72488245330432 L 11.8924205274377 -9.14168023674227 L 11.5668343403753 -9.55030502050498 L 11.2250233539576 -9.94981580462984 L 10.8673465681704 -10.3392823891538 L 10.4942321829967 -10.7177923741132 L 10.1061771984166 -11.0844559595433 L 9.70374521440781 -11.4384139454783 L 9.28756443094535 -11.7788425319509 L 8.8583248480018 -12.1049603189921 L 8.41677466554742 -12.4160335066312 L 7.96371588355036 -12.7113810948951 L 7.49999970197679 -12.9903804838087 L 7.02652112079114 -13.2524708733941 L 6.54421293995634 -13.4971574636712 L 6.05404055943404 -13.7240144546567 L 5.55699457918488 -13.9326878463647 L 5.05408439916873 -14.1228968388065 L 4.546331819345 -14.2944342319902 L 4.03476423967287 -14.4471678259211 L 3.52040806011155 -14.5810394206016 L 3.00428148062058 -14.6960632160309 L 2.48738950116002 -14.7923248122058 L 1.97071712169074 -14.8699784091201 L 1.4552237421746 -14.9292434067652 L 0.941838962574682 -14.9704016051297 L 0.431456582855456 -14.9937930042002 L -0.0750681970170579 -14.999811603961 L -0.576922977075141 -14.9889006043946 L -1.56360413786795 -14.9182816072008 L -2.52304129974335 -14.7862856124458 L -3.45050606288921 -14.597739219938 L -4.34210502746025 -14.3577890294727 L -5.19477039357837 -14.0717568408386 L -6.00622376133411 -13.7450084538224 L -6.7749241307887 -13.3828390682138 L -7.49999970197679 -12.9903804838087 L -8.20241667406525 -12.5586761009631 L -8.9004146463293 -12.0740467202205 L -9.58911381896285 -11.5346815416529 L -10.2631573921788 -10.9392677653126 L -10.9167599662069 -10.2870955912275 L -11.5437783412915 -9.57816081939808 L -12.1378087176868 -8.81326164979245 L -12.692307095653 -7.99408028234379 L -13.20073387545 -7.12324411694771 L -13.4356674661145 -6.66954433497612 L -13.6567158573309 -6.20436095346085 L -13.8631376491284 -5.72829817237788 L -14.0542238415353 -5.24201979170085 L -14.2293048345782 -4.74624741140107 L -14.387754628282 -4.24175683144773 L -14.5289966226695 -3.72937545180793 L -14.6525090177616 -3.20997827244692 L -14.7578296135765 -2.68448289332823 L -14.8445590101302 -2.15384551441387 L -14.9123656074358 -1.61905433566456 L -14.9609876055038 -1.08112395703999 L -14.9902370043415 -0.541089778499024 L -14.9999994039536 0 L -14.9902370043415 0.541089778499024 L -14.9609876055038 1.08112395703999 L -14.9123656074358 1.61905433566456 L -14.8445590101302 2.15384551441387 L -14.7578296135765 2.68448289332823 L -14.6525090177616 3.20997827244692 L -14.5289966226695 3.72937545180793 L -14.387754628282 4.24175683144773 L -14.2293048345782 4.74624741140107 L -14.0542238415353 5.24201979170085 L -13.8631376491284 5.72829817237788 L -13.6567158573309 6.20436095346085 L -13.4356674661145 6.66954433497612 L -13.20073387545 7.12324411694771 L -12.9526836853066 7.56491669939722 L -12.692307095653 7.99408028234379 L -12.1378087176868 8.81326164979245 L -11.5437783412915 9.57816081939808 L -10.9167599662069 10.2870955912275 L -10.2631573921788 10.9392677653126 L -9.58911381896285 11.5346815416529 L -8.9004146463293 12.0740467202205 L -8.20241667406525 12.5586761009631 L -7.49999970197679 12.9903804838087 L -6.7749241307887 13.3828390682138 L -6.00622376133411 13.7450084538224 L -5.19477039357837 14.0717568408386 L -4.34210502746025 14.3577890294727 L -3.45050606288921 14.597739219938 L -2.52304129974335 14.7862856124458 L -1.56360413786795 14.9182816072008 L -0.576922977075141 14.9889006043946 L 0.431456582855456 14.9937930042002 L 0.941838962574682 14.9704016051297 L 1.4552237421746 14.9292434067652 L 1.97071712169074 14.8699784091201 L 2.48738950116002 14.7923248122058 L 3.00428148062058 14.6960632160309 L 3.52040806011155 14.5810394206016 L 4.03476423967287 14.4471678259211 L 4.546331819345 14.2944342319902 L 5.05408439916873 14.1228968388065 L 5.55699457918488 13.9326878463647 L 6.05404055943404 13.7240144546567 L 6.54421293995634 13.4971574636712 L 7.02652112079114 13.2524708733941 L 7.49999970197679 12.9903804838087 L 7.96371588355036 12.7113810948951 L 8.41677466554742 12.4160335066312 L 8.8583248480018 12.1049603189921 L 9.28756443094535 11.7788425319509 L 9.70374521440781 11.4384139454783 L 10.1061771984166 11.0844559595433 L 10.4942321829967 10.7177923741132 L 10.8673465681704 10.3392823891538 L 11.2250233539576 9.94981580462984 L 11.5668343403753 9.55030502050498 L 11.8924205274377 9.14168023674227 L 12.2014921151563 8.72488245330432 L 12.4938285035399 8.30085727015357 L 12.7692772925945 7.87054888725249 L 13.0277520823236 7.43489470456383 L 13.2692302727282 6.99482032205081 L 13.7014128555548 6.10501975740831 L 14.0668196410348 5.20812499304771 L 14.3672660290961 4.31064362871041 L 14.605262619639 3.41852126416017 L 14.7838842125412 2.53707529918569 L 14.9066384076634 1.67096173360195 L 14.9773408048539 0.824163167250698 L 14.9999994039536 0 " />
  </g>
</svg>

<?xml version="1.0" encoding="UTF-8" standalone="no"?>
<svg
   xmlns:dc="http://purl.org/dc/elements/1.1/"
   xmlns:cc="http://creativecommons.org/ns#"
   xmlns:rdf="http://www.w3.org/1999/02/22-rdf-syntax-ns#"
   xmlns:svg="http://www.w3.org/2000/svg"
   xmlns="http://www.w3.org/2000/svg"
   xmlns:sodipodi="http://sodipodi.sourceforge.net/DTD/sodipodi-0.dtd"
   xmlns:inkscape="http://www.inkscape.org/namespaces/inkscape"
   viewBox="-15 -15 5.3149604 5.3149607"
   id="svg2"
   version="1.1"
   inkscape:version="0.48.3.1 r9886"
   width="100%"
   height="100%"
   sodipodi:docname="0010_612.svg">
  <metadata
     id="metadata13">
    <rdf:RDF>
      <cc:Work
         rdf:about="">
        <dc:format>image/svg+xml</dc:format>
        <dc:type
           rdf:resource="http://purl.org/dc/dcmitype/StillImage" />
      </cc:Work>
    </rdf:RDF>
  </metadata>
  <defs
     id="defs11" />
  <sodipodi:namedview
     pagecolor="#ffffff"
     bordercolor="#666666"
     borderopacity="1"
     objecttolerance="10"
     gridtolerance="10"
     guidetolerance="10"
     inkscape:pageopacity="0"
     inkscape:pageshadow="2"
     inkscape:window-width="1110"
     inkscape:window-height="648"
     id="namedview9"
     showgrid="false"
     inkscape:showpageshadow="false"
     fit-margin-top="0"
     fit-margin-left="0"
     fit-margin-right="0"
     fit-margin-bottom="0"
     inkscape:zoom="7.8666667"
     inkscape:cx="6.118246"
     inkscape:cy="14.993802"
     inkscape:window-x="347"
     inkscape:window-y="220"
     inkscape:window-maximized="0"
     inkscape:current-layer="svg2" />
  <!-- Creator: SVG Document for Symbols-->
  <polyline
     points="14.9999994039536,0 14.9773408048539,-0.824163167250698 14.9066384076634,-1.67096173360195 14.7838842125412,-2.53707529918569 14.605262619639,-3.41852126416017 14.3672660290961,-4.31064362871041 14.0668196410348,-5.20812499304771 13.7014128555548,-6.10501975740831 13.2692302727282,-6.99482032205081 12.7692772925945,-7.87054888725249 12.4938285035399,-8.30085727015357 12.2014921151563,-8.72488245330432 11.8924205274377,-9.14168023674227 11.5668343403753,-9.55030502050498 11.2250233539576,-9.94981580462984 10.8673465681704,-10.3392823891538 10.4942321829967,-10.7177923741132 10.1061771984166,-11.0844559595433 9.70374521440781,-11.4384139454783 9.28756443094535,-11.7788425319509 8.8583248480018,-12.1049603189921 8.41677466554742,-12.4160335066312 7.96371588355036,-12.7113810948951 7.49999970197679,-12.9903804838087 7.02652112079114,-13.2524708733941 6.54421293995634,-13.4971574636712 6.05404055943404,-13.7240144546567 5.55699457918488,-13.9326878463647 5.05408439916873,-14.1228968388065 4.546331819345,-14.2944342319902 4.03476423967287,-14.4471678259211 3.52040806011155,-14.5810394206016 3.00428148062058,-14.6960632160309 2.48738950116002,-14.7923248122058 1.97071712169074,-14.8699784091201 1.4552237421746,-14.9292434067652 0.941838962574682,-14.9704016051297 0.431456582855456,-14.9937930042002 -0.0750681970170579,-14.999811603961 -0.576922977075141,-14.9889006043946 -1.56360413786795,-14.9182816072008 -2.52304129974335,-14.7862856124458 -3.45050606288921,-14.597739219938 -4.34210502746025,-14.3577890294727 -5.19477039357837,-14.0717568408386 -6.00622376133411,-13.7450084538224 -6.7749241307887,-13.3828390682138 -7.49999970197679,-12.9903804838087 -8.20241667406525,-12.5586761009631 -8.9004146463293,-12.0740467202205 -9.58911381896285,-11.5346815416529 -10.2631573921788,-10.9392677653126 -10.9167599662069,-10.2870955912275 -11.5437783412915,-9.57816081939808 -12.1378087176868,-8.81326164979245 -12.692307095653,-7.99408028234379 -13.20073387545,-7.12324411694771 -13.4356674661145,-6.66954433497612 -13.6567158573309,-6.20436095346085 -13.8631376491284,-5.72829817237788 -14.0542238415353,-5.24201979170085 -14.2293048345782,-4.74624741140107 -14.387754628282,-4.24175683144773 -14.5289966226695,-3.72937545180793 -14.6525090177616,-3.20997827244692 -14.7578296135765,-2.68448289332823 -14.8445590101302,-2.15384551441387 -14.9123656074358,-1.61905433566456 -14.9609876055038,-1.08112395703999 -14.9902370043415,-0.541089778499024 -14.9999994039536,0 -14.9902370043415,0.541089778499024 -14.9609876055038,1.08112395703999 -14.9123656074358,1.61905433566456 -14.8445590101302,2.15384551441387 -14.7578296135765,2.68448289332823 -14.6525090177616,3.20997827244692 -14.5289966226695,3.72937545180793 -14.387754628282,4.24175683144773 -14.2293048345782,4.74624741140107 -14.0542238415353,5.24201979170085 -13.8631376491284,5.72829817237788 -13.6567158573309,6.20436095346085 -13.4356674661145,6.66954433497612 -13.20073387545,7.12324411694771 -12.9526836853066,7.56491669939722 -12.692307095653,7.99408028234379 -12.1378087176868,8.81326164979245 -11.5437783412915,9.57816081939808 -10.9167599662069,10.2870955912275 -10.2631573921788,10.9392677653126 -9.58911381896285,11.5346815416529 -8.9004146463293,12.0740467202205 -8.20241667406525,12.5586761009631 -7.49999970197679,12.9903804838087 -6.7749241307887,13.3828390682138 -6.00622376133411,13.7450084538224 -5.19477039357837,14.0717568408386 -4.34210502746025,14.3577890294727 -3.45050606288921,14.597739219938 -2.52304129974335,14.7862856124458 -1.56360413786795,14.9182816072008 -0.576922977075141,14.9889006043946 0.431456582855456,14.9937930042002 0.941838962574682,14.9704016051297 1.4552237421746,14.9292434067652 1.97071712169074,14.8699784091201 2.48738950116002,14.7923248122058 3.00428148062058,14.6960632160309 3.52040806011155,14.5810394206016 4.03476423967287,14.4471678259211 4.546331819345,14.2944342319902 5.05408439916873,14.1228968388065 5.55699457918488,13.9326878463647 6.05404055943404,13.7240144546567 6.54421293995634,13.4971574636712 7.02652112079114,13.2524708733941 7.49999970197679,12.9903804838087 7.96371588355036,12.7113810948951 8.41677466554742,12.4160335066312 8.8583248480018,12.1049603189921 9.28756443094535,11.7788425319509 9.70374521440781,11.4384139454783 10.1061771984166,11.0844559595433 10.4942321829967,10.7177923741132 10.8673465681704,10.3392823891538 11.2250233539576,9.94981580462984 11.5668343403753,9.55030502050498 11.8924205274377,9.14168023674227 12.2014921151563,8.72488245330432 12.4938285035399,8.30085727015357 12.7692772925945,7.87054888725249 13.0277520823236,7.43489470456383 13.2692302727282,6.99482032205081 13.7014128555548,6.10501975740831 14.0668196410348,5.20812499304771 14.3672660290961,4.31064362871041 14.605262619639,3.41852126416017 14.7838842125412,2.53707529918569 14.9066384076634,1.67096173360195 14.9773408048539,0.824163167250698 14.9999994039536,0"
     style="fill:none;stroke:#59d9ff;stroke-width:0.000001"
     id="polyline4"
     transform="translate(-7.7716536e-7,-24.678842)" />
  <g
     id="ComplexString2d_1278"
     style="fill:#53aedd;fill-opacity:1;fill-rule:evenodd;stroke:none"
     transform="matrix(0.17716536,0,0,0.17720325,-12.34252,-12.34199)">
    <path
       d="m 14.999999,0 -0.02266,-0.82416317 -0.0707,-0.84679853 -0.122754,-0.8661136 -0.178621,-0.881446 -0.237997,-0.8921223 -0.300446,-0.8974814 -0.365407,-0.8968948 -0.432183,-0.8898005 -0.499953,-0.8757286 -0.275448,-0.4303084 -0.292337,-0.4240252 -0.309071,-0.4167977 -0.325587,-0.4086248 -0.341811,-0.3995108 -0.357676,-0.3894662 -0.373115,-0.37851 -0.388055,-0.366664 -0.4024318,-0.353958 -0.4161808,-0.340429 -0.4292396,-0.326117 -0.4415501,-0.311074 -0.4530588,-0.295347 -0.4637162,-0.278999 -0.4734786,-0.262091 -0.4823082,-0.244686 -0.4901723,-0.226857 -0.497046,-0.208674 -0.5029102,-0.190209 -0.5077526,-0.171537 -0.5115676,-0.152734 -0.5143561,-0.133871 -0.5161266,-0.115024 -0.516892,-0.09626 -0.5166724,-0.07765 -0.5154934,-0.05926 -0.51338474,-0.04116 -0.51038238,-0.02339 -0.50652478,-0.006 -0.50185478,0.01091 -0.98668112,0.07062 -0.9594372,0.131996 -0.9274648,0.188547 -0.8915989,0.23995 -0.8526654,0.286032 -0.8114534,0.326749 -0.7687003,0.362169 -0.7250756,0.392459 -0.702417,0.431704 -0.6979979,0.484629 -0.6886992,0.539365 -0.6740432,0.595414 -0.653603,0.652172 -0.627018,0.7089352 -0.594031,0.7648992 -0.554498,0.8191813 -0.508427,0.8708362 -0.234933,0.4536998 -0.221049,0.4651833 -0.206422,0.4760628 -0.191086,0.4862784 -0.175081,0.4957724 -0.15845,0.5044906 -0.141242,0.5123813 -0.123512,0.5193972 -0.105321,0.5254954 -0.08673,0.5306374 -0.06781,0.5347912 -0.04862,0.5379303 -0.02925,0.54003422 L -14.999999,0 l 0.0098,0.54108978 0.02925,0.54003422 0.04862,0.5379303 0.06781,0.5347912 0.08673,0.5306374 0.105321,0.5254954 0.123512,0.5193972 0.141242,0.5123813 0.15845,0.5044906 0.175081,0.4957724 0.191086,0.4862784 0.206422,0.4760628 0.221049,0.4651833 0.234933,0.4536998 0.24805,0.4416726 0.260377,0.4291636 0.554498,0.8191813 0.594031,0.7648992 0.627018,0.7089352 0.653603,0.652172 0.6740432,0.595414 0.6886992,0.539365 0.6979979,0.484629 0.702417,0.431704 0.7250756,0.392459 0.7687003,0.362169 0.8114534,0.326749 0.8526654,0.286032 0.8915989,0.23995 0.9274648,0.188547 0.9594372,0.131996 0.98668112,0.07062 1.00837956,0.0049 0.51038238,-0.02339 0.51338474,-0.04116 0.5154934,-0.05926 0.5166724,-0.07765 0.516892,-0.09626 0.5161266,-0.115024 0.5143561,-0.133871 0.5115676,-0.152734 0.5077526,-0.171537 0.5029102,-0.190209 0.497046,-0.208674 L 6.5442539,13.497176 7.0265621,13.25249 7.5000407,12.990399 7.9637569,12.7114 8.4168157,12.416053 8.8583658,12.104979 9.2876054,11.778862 9.7037862,11.438433 10.106218,11.084475 10.494273,10.717811 10.867388,10.339301 11.225023,9.9498158 11.566834,9.550305 11.892421,9.1416802 12.201492,8.7248825 12.493829,8.3008573 12.769277,7.8705489 13.027752,7.4348947 13.26923,6.9948203 13.701413,6.1050198 14.06682,5.208125 14.367266,4.3106436 14.605263,3.4185213 14.783884,2.5370753 14.906638,1.6709617 14.977341,0.82416317 14.999999,0"
       id="path7"
       style="fill:#53aedd;fill-opacity:1;stroke:none"
       inkscape:connector-curvature="0" />
  </g>
</svg>
